X: 518
T: Pie baicai
%%abc-version 2.0
%%abcx-abcm2ps-target-version 5.9.1 (29 Sep 2008)
%%abc-creator hum2abc beta
%%abcx-conversion-date 2013/10/02 07:52:30
%%abc-edited-by Helmut Schaffrath
%%humdrum-veritas 1928917062
%%humdrum-veritas-data 3746416446
%%continueall 1
%%barnumbers 0
L: 1/8
M: 2/4
K: G
e d e d [I:setbarnb 1]| 
B ed2 | 
e d B A | 
G EG2 | 
d d B d | 
G BA2 | 
d G G E | 
D4 |]  



